!!!OTL: ICH KOMM DAHER OH ALLEN SPOTT
!!!ARE: Europa, Mitteleuropa, Deutschland
!!!SCT: E0159
!!!YEM: Copyright 1995, estate of Helmut Schaffrath.
**kern
*ICvox
*Ivox
*M4/4
*k[b-]
*F:
=1
{2f
4.cc
8b-
=2
4a
4dd
4cc
4b-
=3
2a
4r}
{4g
=4
4.a
8b-
4cc
4f
=5
2a
2g
=6
2f
4r}
{4g
=7
4.g
8g
4g
4a
=8
2b-
2a
=9
2g
4r}
{4g
=10
4.g
8f
4e
4c
=11
2e
2d
=12
2c
4r}
{4c
=13
4d
4e
8f
8g
8a
8b-
=14
4cc
4a
2g
=15
1f}
==
!!!AGN: erzaehlendes Volks - Lied, Scherz, Schwank, Ballade ?
!!!ONB: ESAC (Essen Associative Code) Database: ERK1
!!!AMT: simple quadruple
!!!AIN: vox
!!!EED: Helmut Schaffrath
!!!EEV: 1.0
*-
